src/assets/send.svg

<svg width="21" height="21" viewBox="0 0 24 24" fill="none" xmlns="http://www.w3.org/2000/svg">
<path d="M10.5164 20.7446L16.3422 17.8317C21.4315 15.2871 23.9762 14.0147 23.9761 11.9998C23.9762 9.98503 21.4315 8.71269 16.3422 6.168L10.5164 3.25509C6.40876 1.20129 4.35496 0.174399 3.16431 0.48961C2.03162 0.789471 1.14697 1.67412 0.847132 2.80679C0.53187 3.99749 1.55877 6.05128 3.61258 10.1589C3.86709 10.6679 4.38749 11.0066 4.95663 11.0092L14.2568 11.0525C14.7799 11.0549 15.2021 11.4811 15.1996 12.0042C15.1972 12.5275 14.7711 12.9497 14.2479 12.9472L5.09796 12.9047C4.47073 12.9018 3.89313 13.2798 3.61261 13.8408C1.55883 17.9484 0.531859 20.0023 0.847172 21.1929C1.14696 22.3256 2.03163 23.2103 3.16433 23.5101C4.35499 23.8254 6.40877 22.7985 10.5164 20.7446Z" fill="#838383"/>
</svg>

<svg width="21" height="21" viewBox="0 0 24 24" fill="none" xmlns="http://www.w3.org/2000/svg"><path d="M10.516 20.745l5.826-2.913c5.09-2.545 7.634-3.817 7.634-5.832 0-2.015-2.544-3.287-7.634-5.832l-5.826-2.913C6.41 1.201 4.355.175 3.164.49A3.26 3.26 0 00.847 2.807c-.315 1.19.712 3.244 2.766 7.352.254.509.774.848 1.344.85l9.3.043a.947.947 0 01-.01 1.895l-9.149-.042c-.627-.003-1.205.375-1.485.936C1.559 17.948.532 20.002.847 21.193a3.26 3.26 0 002.317 2.317c1.191.315 3.245-.712 7.352-2.765z" fill="#838383"/></svg>
